/* XPM */
static char *out[] = {
/* columns rows colors chars-per-pixel */
"64 64 230 2 ",
"   c #1B1E24",
".  c #1C2226",
"X  c #1D242B",
"o  c #232525",
"O  c #252925",
"+  c #242828",
"@  c #262A2A",
"#  c #2B2D2C",
"$  c #372F27",
"%  c #342F2D",
"&  c #3C2E2C",
"*  c #2D3025",
"=  c #2D312E",
"-  c #32342D",
";  c #3B352A",
":  c #35392D",
">  c #3A3D2C",
",  c #252C31",
"<  c #2B2E32",
"1  c #2C3232",
"2  c #2C333B",
"3  c #323433",
"4  c #3C3232",
"5  c #363A32",
"6  c #3A3E34",
"7  c #33363B",
"8  c #36393B",
"9  c #3A3D3C",
"0  c #44312E",
"q  c #483633",
"w  c #563936",
"e  c #673A36",
"r  c #733E38",
"t  c #3E412E",
"y  c #3E4233",
"u  c #3E423A",
"i  c #595C1C",
"p  c #6D6F14",
"a  c #787A16",
"s  c #474928",
"d  c #4E5028",
"f  c #565628",
"g  c #414433",
"h  c #454936",
"j  c #42453B",
"k  c #4A473A",
"l  c #44483E",
"z  c #4B4C3C",
"x  c #504336",
"c  c #524F3D",
"v  c #53513D",
"b  c #58573A",
"n  c #655237",
"m  c #696A27",
"M  c #707230",
"N  c #777939",
"B  c #2E3640",
"V  c #313641",
"C  c #343B43",
"Z  c #3B3E42",
"A  c #3E4243",
"S  c #3D434A",
"D  c #424543",
"F  c #494746",
"G  c #464A43",
"H  c #4B4D44",
"J  c #43454A",
"K  c #464A4A",
"L  c #494D4B",
"P  c #544B43",
"I  c #4E5145",
"U  c #4C514D",
"Y  c #525244",
"T  c #52534B",
"R  c #595949",
"E  c #474851",
"W  c #4C4E52",
"Q  c #564E51",
"!  c #4E5253",
"~  c #515554",
"^  c #545955",
"/  c #555858",
"(  c #5B5B5C",
")  c #6C4D43",
"_  c #655848",
"`  c #5E604B",
"'  c #5E615C",
"]  c #666849",
"[  c #747646",
"{  c #676556",
"}  c #62635D",
"|  c #766856",
" . c #6E705A",
".. c #767054",
"X. c #5C5D62",
"o. c #5D6160",
"O. c #626563",
"+. c #646864",
"@. c #6C6D65",
"#. c #6F6E6A",
"$. c #6E716D",
"%. c #757567",
"&. c #6F7371",
"*. c #737572",
"=. c #7A7D7A",
"-. c #993E3B",
";. c #817B18",
":. c #944F45",
">. c #A05751",
",. c #8A6E55",
"<. c #8F6F55",
"1. c #AF7B59",
"2. c #857966",
"3. c #977E67",
"4. c #7E8218",
"5. c #7E8148",
"6. c #7E827D",
"7. c #9B9A09",
"8. c #888912",
"9. c #989919",
"0. c #AA8916",
"q. c #A4A407",
"w. c #BAB805",
"e. c #B1A810",
"r. c #B8BA16",
"t. c #898B29",
"y. c #8D8E31",
"u. c #979736",
"i. c #9EA025",
"p. c #B9BA26",
"a. c #AEB131",
"s. c #C8B604",
"d. c #BEC10C",
"f. c #C8C905",
"g. c #D7D803",
"h. c #CCCD16",
"j. c #E8E801",
"k. c #E1E41E",
"l. c #C9CB2F",
"z. c #8D8E52",
"x. c #BD8A5E",
"c. c #9FA05B",
"v. c #AEAF4F",
"b. c #9B8468",
"n. c #91916C",
"m. c #87877A",
"M. c #988974",
"N. c #B38B65",
"B. c #AD8F71",
"V. c #9EA16E",
"C. c #AEB068",
"Z. c #B3B272",
"A. c #CC955A",
"S. c #E7A75C",
"D. c #C99A69",
"F. c #D59B68",
"G. c #CE9871",
"H. c #E29F77",
"J. c #DBA669",
"K. c #CAA279",
"L. c #D5A778",
"P. c #E5AB6F",
"I. c #E7B678",
"U. c #C8CC47",
"Y. c #F4C27C",
"T. c #7D7F81",
"R. c #858784",
"E. c #8C8E8C",
"W. c #8D908D",
"Q. c #959687",
"!. c #8F9192",
"~. c #979996",
"^. c #AB9B87",
"/. c #9DA19B",
"(. c #B7A486",
"). c #B2AC8B",
"_. c #A3A59E",
"`. c #9B9CA0",
"'. c #9EA2A4",
"]. c #A5A8A5",
"[. c #ACADAB",
"{. c #AEB1AC",
"}. c #B1B2A8",
"|. c #B3B5B2",
" X c #B5B9B4",
".X c #B9BBB7",
"XX c #BBBDBB",
"oX c #D6AA86",
"OX c #CBA990",
"+X c #D5AF91",
"@X c #C7B79A",
"#X c #DBB894",
"$X c #E8B087",
"%X c #E9BB88",
"&X c #E9BC96",
"*X c #C8BAA1",
"=X c #BEC1BD",
"-X c #ECC38A",
";X c #ECC599",
":X c #F5CF94",
">X c #F3CA99",
",X c #D5C7AA",
"<X c #C1C4BE",
"1X c #EECBA4",
"2X c #F4CBA8",
"3X c #F6D3A9",
"4X c #F4D7B9",
"5X c #C3C5C2",
"6X c #C7CAC5",
"7X c #CBCDCB",
"8X c #D0D2CF",
"9X c #CED2D1",
"0X c #D4D5D3",
"qX c #D8DAD7",
"wX c #DBDDDC",
"eX c #F5DCC4",
"rX c #DEE1DD",
"tX c #E2E4DD",
"yX c #DCDEE2",
"uX c #DFE0E4",
"iX c #E2E3E2",
"pX c #E9EAE6",
"aX c #EDEDEA",
"sX c #EFF0EB",
"dX c #F2F3EE",
"fX c #F6F8EF",
"gX c #F5F5F2",
"hX c #F7F8F3",
"jX c #FAFBF4",
"kX c #FCFDF9",
/* pixels */
"8 8 8 8 8 8 Z Z Z Z Z Z S S J A J J J K J K E E J E E K E E E E J J D J J J J J A J A D Z 9 Z 8 < 3 8 8 8 3 1 3 < < # # @ + + + ",
"8 8 3 3 8 C Z Z Z Z Z Z E J J E E W W ! W ! W / ! ! ~ ~ / ! W ! W ! W L L L L K L K K J J J D A Z Z 9 8 8 7 3 < < < # , @ , + + ",
", , , , , , , , 2 < 2 2 B V C Z C Z S S S E J S S S S Z S C Z Z A A S J S A J J S A A A Z 7 2 1 , , , X X X X . . . . .       o ",
", , , , , , 2 2 2 2 V V V V V V C C C C C C C C C C C C V V V V C C C C C C V 7 7 7 2 7 7 2 2 2 , X , + , X X X . . .           ",
"( J 9 K L ~ X.! / / ( ( ( / / / X./ X.X.X.X.X./ X.X.X.W X./ ( ( ( ( ' } ( / W K L K J J J L U J Z C 9 8 8 8 3 1 1 1 1 2 < + # < ",
"qX=.Z ]. X.XXX5X7X9X0XwXwXwXuXyXiXuXiXrXrXrXqXqX0X9X0X9X7X7X7X6X6X6X5X5X<X<XXX.X.X.X.X X X|.|.|.|.|.}.[.[.]._.~.~.E.R.R.=.8 ( `.",
"tXm.Z [.5X5X7X9X0XwXuXiXaXaXgXgXgXhXkXkXkXkXkXkXgXhXhXhXkXkXkXkXkXkXkXkXjXjXhXhXkXkXkXhXhXhXdXdXdXdXdXsXaXpXrXqX9X7X<X*X{.A R.pX",
"tXm.D ].=X5X5X7X9XqXyXuXiXpXaXaXsXgXgXhXhXkXkXhXgXaXgXgXgXhXkXkXkXjXjXjXjXhXfXfXfXjXhXhXdXsXsXsXdXdXsXpXaXiXwXqX9X6X<XXX{.A 2.iX",
"qX6.u '.=X=X5X6X9XqXqXyXiXiXpXpXaXaXsXgXgXhXhXdXsXaXaXsXdXgXhXgXjXjXfXjXfXfXsXfXfXfXfXsXaXaXpXpXsXfXsXpXpXrXrX0X7X5X=X|.].u 6.qX",
"@.~ u +.&.=.R.R.!.!./.'.].].[.{.{. X X XXX=X=X=X=X=X=X=X=X5X5X5X5X5X6X5X5X=X=X=X=X<X<X=XXX X.X=X=X=X=X=X=X|.].'.~.~.W.R.6.y O.[.",
"A u u A A A G G D G K L K U W W U U U ! ! ~ ~ ! ! ~ ! ^ ^ ! ^ ^ ~ ~ ~ ~ ~ ~ ~ U ! U U U U U I L L S S I S A u u u u 9 y 6 5 5 u ",
"u A u u A A A D A D D D G G K K L L S L S L L L S W ! ! S U L U ! U U H U L L L U G L L G G D G G l A u u u u u 9 6 5 5 5 5 : 5 ",
"G A u A A G u D D D G G D G D K S H G L L G G L U U S U L L L L K L K L G L K K G G G A G A A G A u A u u u u 1 y y y y 5 - - 5 ",
"u u 9 A A u G u l D G G G K G G L G L G G L L G U U U U I L L L U L L U L L H K L G K G S G A G u A u u u u u y u u 1 1 6 5 - 5 ",
"u u 6 u G l G l l G l G G l G K L G G L U L L L L L L U U U U U L U L L L G L K L G L G G G G A l u l u u u u y u u u u y : - y ",
"u u u u u l u G u l l G l G G G G G L I S L L L L L L L L L L L L L K H L L L H G G G G l l u l l u l u u u u u y 1 5 y y : = 5 ",
"u 6 u u u A l G G l G G l G G G G H H H L L L H U U L L L L L U U I I U I U S I H H G G l G l j u u u u u u u u y u u y t - - t ",
"u u y u l y y y u 6 y 9 y u y u u j j j u D D l u G l l l u l H I I A u A A u u u u u u u q 9 9 u u y t 5 5 : : : = - 5 5 - 1 t ",
"u u 7 u u y u u u u u 9 u u u j u 9 j u u j u u u l A u G A G I U I A I  .' U U I u G G l u 9 9 u y y 1 5 : - - - 5 y y y 1 = t ",
"6 6 5 u A y u , # 3 # # # < < < 3 9 T F 5 2 1 2 2 1 1 # u ' U I I I u 6./.!.6.A u 1 8 5 7 T { _ , @ @ @ X o o   . O u : y t = t ",
"y y y u u u u 5 @ # < 9 # # Z 3 @.).(.B.n.8 1 1 1 h M n.Q.~.@.H U I U /./.' 1 1 , 1 1 u ^.@X(.B.] @ @ t d s i p p = y y y t = y ",
"y u 5 u u u u = 1 @.$.( Q / = %.@X(.(.3.| 2.} O.=.C.l.Z.Z.~.} I Y I u 6.S 1 1 1 1 1 u ~.OX3.<.3.,.2.: s a p 8.7.8.= y 5 y : = t ",
"5 u 5 u u y u O @ $.~._.~.~.K (.B.^.^.(.).@X@X].].).k.u.a.G H H I I I t 1 , , 1 1 1 %.b.G.K.oX(.N.@Xm.R q.a q.7.a * u t u : : t ",
"u 5 : u u y u O @ # 5 A H } P <.J.-X1X4X#X,X,Xm.J ;.f.;.i : k H Y I A 1 1 , 1 = , 1 | N.H.&XeX4X&X#X@X .u.v.f.i.8.: u y y y : y ",
"y y 5 u j 6 6 O O + % # # < q _ A.-X4XeX3X#X@XM.5 f 7.9.w.: l H I z I 1 = 3 = # < = P <.L.1XeXeX;XK.*X5.f.c.c.m.6. .g y j 6 : y ",
"y 5 : u j 6 6 @ + + # # = = 1 ) A.:X>X4X3XD.b.n : d 7.8.q.w k z Y I z 4 4 q 4 < # 3 j ) OX&XeX1X&XG.M.z.i.c.c.m.m.%.j y g y : g ",
"y 6 : u g 6 6 O + @ % # # # % b OXN.oX#XI.A.x.F.w ;.g.w.s.) P z I I v w q q q % # 3 _ 1.+XoX2X+X+XF.N.n 4.a q.> 5 6 g y g 6 : g ",
"y y : y j 6 6 # @ # & # # # # ,.L.D.>X#X;XI.I.N.e i w.0.e.:.) z Y z z n w 0 4 % # 3 P F.&X$X3XeX2XA.K.k : d ; o . O l q g 6 : 6 ",
"y > : q j 6 6 @ @ # & + # % 1 ,.P.&X3XeX4XP.%X| w q ;.0.s.-.) c Y z P e 0 & & < # % 3 <.$XoX2X4X&XG.B.O o O o o . O y y g 6 : g ",
"y 6 : g j 6 6 @ + O & # # # 1 <.x.G.2X3X:XJ.b.{ q = x -.:.3._ z Y c c r 0 0 w # # < # P J.I.2X2XP.| q o o O o o o O g y g > ; > ",
"y 6 : j j > 6 @ @ O 0 # # = = D.1.$X>X>XI.J...Q w % e -.:.3.,.F Y v R r 0 % 0 & % # < 4 A.H.&X%XJ.; @ + O o o o o O y y g 6 : g ",
"6 6 : g g 6 6 @ @ # 0 + # # 4 oX1.H.$X%XS.K.k  .) % e -.>.3.| P b v ) r 0 < 0 % # # # % <.$X>XP.P.$ @ O O o o o o O u q g : : y ",
"y 5 : j l 6 6 @ @ @ 0 # # # v $XB.D.3X%X-XM.+.~ ) % e <.M.n.[ z b P _ n 0 # 0 % # # # q k ,.B.K.%X$ @ o + o o o o o j 6 g y : y ",
"y y : y g 6 6 # @ o & # # * N.%X@XB.-XOX%.6.E.6.F = w M.M.b. .b b v _ r 0 # & & # @ % 5 ,.x.%X%X3.% # @ o + o o o o g 6 q 5 : y ",
"y y : u l 6 y @ @ O % @ - - 1.P.3X-X@Xm.R.R.&.&.Q D k M.M.2. .I v v _ e 0 # & w 9 3 3 1 x N.-X3.D 2 3 J < @ o o o o g y y > : y ",
"6 6 : q k 6 y O @ @ * # 3 9 <.S.Y.:XM.$.R.6.~ ~ P ( ^ 2.2.{ ] I v c b e 4 # 8 Q ~ Z 9 u 3 9 O.W J 3 Z ! X.Z # + o o 9 6 u 6 : y ",
"y 6 : g j y y @ @ < 2 A ! ! | S.Y.K.I } &.&.X.o.+.&.*.@.I h I h c z z x q A W W J A 9 ! 3 8 R.u E Z J E E J Z 7 1 # y y g 5 : g ",
"> 6 - j j q y # 3 2.`.].].!.M.S.Y.z T ' ~ +.&.&.=.T.E.6.u O t h z z z u ~ R.'.O.u A 7 ( J Z &.U E A W E E Z J J W 1 y 5 j 5 : q ",
"y 6 : g l 6 j 1 z n.}._.).V.2.D.C.] [ M U 5.5.z.6.c.^.n.5.* t h z h y t  .V.n. .M M m ` N ] 5.N P ] y.[ y.t.] u.N 5 u u y y > y ",
"y 6 - j l y l u q.p.U.).l.v.u.h.v.u.e.t.` ] f.a.p.g.l.p.4.s t t z s u 5 9.f.d.e.j.7.r.e.d.M g.v.k { f.t.j.f.r.9.b 1 u y u 5 > u ",
"6 6 : j l g j g g.k.k.V.k.V.g.j.v.n.r.q.` t d.[ r.g.a.r.l O : t h h s t 7.g.f.r.7.5.l.j.l.n.C.p.u +.d.5.d.w.g.m : # u u y u y u ",
"6 6 : j z j j d h.v.U.C.r.[ f.9.C.^.7.9.u ] i.] r.d.5.r.4.O : t h t t t a m 4.i.r.a.C.Z.).Z.l.c.U @.4.5.d.4.5.7.i @ y y u y t u ",
"y 6 5 j l j j g ] } } ] ] b d g  . .b z u ` R l ` ] ^ ` t O : t y y y t > : > I R { %.%.%.#. .' I U I A S u y y y 7 u u u y : u ",
"y 6 5 u l g F k l G h k k h h h y h g h y h y y h t t t t t t t h t t t t y t t h g g g g g g g y y y t y y u y y y y u A y y u ",
"u 5 5 u l y q u g l k l l h h g h y h h y y y h t t h h h t t t t t y y h h g h h g g h h j g l y h y y t u y y y y y y u u y u ",
"u u y u j j l I H Y Y R Y I z z h h y t y s t t h h t s t t h h s y y s h t g g h h h h h h l h h y g g t z z y u u u u u u u u ",
"u u u u l H l l H I I H H z l z h h y h s h t t t t t h t h t t y y h h h h h h h h g h h h h h h y h g h u z u u u u z u u u L ",
"&.^ u u l l l l l l z H z z h h h h h h h h t y h t h t h t h t y h y t h t s y h h y g h h g g h h g g y u u u z u u u G u ' 6X",
"9XE.u A G l l u G z l l l l h g d u u y y z t t d y d u t h t h t h h t y y u d y y t d u y y u g y g h u y u y u u l l l u 6.=X",
"qXE.u l u l l l l l l z z h g g y h y d y y t t u y y y h t t t y t t h s t y y y t t y d u d u g h h y z y z u y z u l l u +.9X",
"qXW.A G G l l l u l l l l l g k h y h y d y t t y h d u h t t h h t y y y y y h t t t y u y y d y h y g u y y u u h u u l u +.8X",
"yXW.u G u G l G G l l l l g l g y h y h u y t t s y y y t t h t h t s y t h s y y t t y y z y u h y y h z y u u h u u I l u +.qX",
"yX!.A G G l l l l l j j k k j g y y d y y y t t y h y h t t h t t t h t y d t y d t t t d u u u y h u h y u u z h u u l l l 6.9X",
"uX!.A H G G l l l j l l j j k g u u u u y y t t y y h y t h t t h t h t y h y y u y t y y y y d y y y h h u u h u u h l l u +.8X",
"uX!.D G G G l G l l j l D k j j u d h y h y y y h u h y h h h h t h t h y t u d u d t t u u u u y h y y u u u u l h l l h u ' 8X",
"yX!.A K H G l l l l l l l j j k h y h h y h t t t s y s t t t t t t t t y y y y u t t y d y y d h y h u h u h u u u u u l u ' 8X",
"rX!.u L G H l G l l l l l l j h h h y h y h t t h g t h h t t t t h t t t t h t t t t t t t u y u d y z z y z y h u h u l l ^ 9X",
"yX!.A G G G l l l j l l j l l j y y h y y y t t t t t g t h t t t t t h t h t t t t t t y y u d y y y y u u u u u l u l l u ^ 6X",
"yX!.A L G l l u l u l u j j l g y h y h h y t t t t t t t t t t t t t t t g t g t t > t t u y y y y y y y y u y u u h u h u G /.",
"XX6.A G G G G l l l l j j k j l y h y y t t t t g t t h t t t t t t t t t t t t t s > t t d y y y z z y y y h u y h u h u u t u ",
"~ U A G G l G l l l j l j q j g y h t y t t t > t t t t t t t t t g t t t t t t t t > t y t t y t y y y y y y u u h y u u u t u ",
"S K u G G l l l u l l j j k j j y h y t t t > > t t t t t t t t t t t t t t t t t t > t t t y y y t y y y y y y y y u h h y t u ",
"D D u G G l l l l u j j j j g g t y y y t t t > t t t t t t t t t t t t t t t t t t t t y y t d t t y t y t y y y u u u u u 5 u ",
"G A 9 G l l A l l j j l q j j g h y t t t t > t t t t t t t t t t t t t t t t t t t t t t y y y t t t t y t t t y y y y h y 5 u "
};
