/* XPM */
static char *out[] = {
/* columns rows colors chars-per-pixel */
"64 64 209 2 ",
"   c #171B1F",
".  c #2D0202",
"X  c #2C0A08",
"o  c #330302",
"O  c #3B0302",
"+  c #3C0906",
"@  c #320D0A",
"#  c #3A0C09",
"$  c #2A160F",
"%  c #33130D",
"&  c #3D120D",
"*  c #381913",
"=  c #392117",
"-  c #39261D",
";  c #3A2B1E",
":  c #191E23",
">  c #191E25",
",  c #1C2224",
"<  c #1C242B",
"1  c #1F292C",
"2  c #222526",
"3  c #242A2C",
"4  c #262B2C",
"5  c #3B2E22",
"6  c #2E342C",
"7  c #3D3426",
"8  c #363A26",
"9  c #393B27",
"0  c #33372B",
"q  c #3B3728",
"w  c #353A2C",
"e  c #3B3E2B",
"r  c #242B33",
"t  c #292E33",
"y  c #272E39",
"u  c #292F38",
"i  c #2D3234",
"p  c #2D343C",
"a  c #2F383E",
"s  c #323434",
"d  c #353B33",
"f  c #3B3E33",
"g  c #32373A",
"h  c #38373A",
"j  c #353A3B",
"k  c #3A3E3B",
"l  c #430303",
"z  c #4A0303",
"x  c #4C0906",
"c  c #420C09",
"v  c #4A0E0B",
"b  c #530604",
"n  c #5B0705",
"m  c #540905",
"M  c #5A0A06",
"N  c #55070D",
"B  c #520D0A",
"V  c #5C0C09",
"C  c #43130F",
"Z  c #4C110C",
"A  c #54130D",
"S  c #5C130E",
"D  c #441A13",
"F  c #4A1813",
"G  c #561510",
"H  c #591A15",
"J  c #630A05",
"K  c #660A06",
"L  c #630D0A",
"P  c #690D0C",
"I  c #64110E",
"U  c #6A120F",
"Y  c #72140E",
"T  c #640E11",
"R  c #690E11",
"E  c #641213",
"W  c #6B1412",
"Q  c #681A16",
"!  c #751914",
"~  c #42221A",
"^  c #47261B",
"/  c #4B221B",
"(  c #59261C",
")  c #6D211B",
"_  c #72251A",
"`  c #432D21",
"'  c #4C2C22",
"]  c #572925",
"[  c #5B2C24",
"{  c #483628",
"}  c #423B2C",
"|  c #59352A",
" . c #4E3D34",
".. c #533C34",
"X. c #65362D",
"o. c #3D422D",
"O. c #3E4233",
"+. c #3F4831",
"@. c #3D443B",
"#. c #3E483D",
"$. c #41442F",
"%. c #48472E",
"&. c #424534",
"*. c #4B4433",
"=. c #454934",
"-. c #494C36",
";. c #42463A",
":. c #4A473F",
">. c #454A3B",
",. c #4A4D3B",
"<. c #544236",
"1. c #504D33",
"2. c #55463A",
"3. c #554C3C",
"4. c #4D5035",
"5. c #47503A",
"6. c #4D513D",
"7. c #535235",
"8. c #51533D",
"9. c #2F3841",
"0. c #333A41",
"q. c #3C3E41",
"w. c #403F43",
"e. c #3D4244",
"r. c #3F4645",
"t. c #424445",
"y. c #444B43",
"u. c #4A4E42",
"i. c #444649",
"p. c #464A4A",
"a. c #4A4C4C",
"s. c #534D41",
"d. c #475143",
"f. c #4C5243",
"g. c #4F5842",
"h. c #4B534B",
"j. c #515543",
"k. c #545A45",
"l. c #53564A",
"z. c #555B4A",
"x. c #595D4A",
"c. c #4D4E52",
"v. c #514E52",
"b. c #515353",
"n. c #565955",
"m. c #5A5D55",
"M. c #565859",
"N. c #5D5C5B",
"B. c #625D5F",
"V. c #5A614B",
"C. c #5E6259",
"Z. c #696D5F",
"A. c #6A6E65",
"S. c #6F726A",
"D. c #71746A",
"F. c #72786F",
"G. c #787C73",
"H. c #7B8079",
"J. c #82857C",
"K. c #878A83",
"L. c #8A8C84",
"P. c #8E9188",
"I. c #92958C",
"U. c #969A93",
"Y. c #9A9D95",
"T. c #9CA097",
"R. c #9EA29B",
"E. c #A1A295",
"W. c #A2A49E",
"Q. c #A4A5A1",
"!. c #A6A9A2",
"~. c #A9ACA5",
"^. c #ADAFA9",
"/. c #ADB1A9",
"(. c #B1B3AC",
"). c #B8BBAE",
"_. c #B3B6B0",
"`. c #B6BAB3",
"'. c #BBBEB6",
"]. c #BFC2B7",
"[. c #BEC1BA",
"{. c #C2C5BE",
"}. c #C6C9BD",
"|. c #C3C6C0",
" X c #C5CAC2",
".X c #CBCEC4",
"XX c #CCCFC9",
"oX c #CDD1C6",
"OX c #CDD2CA",
"+X c #D4D5C8",
"@X c #D2D4CC",
"#X c #D5D6D1",
"$X c #DADCD5",
"%X c #DDDEDB",
"&X c #DFE0D7",
"*X c #DEE0DA",
"=X c #E0E2D7",
"-X c #E3E4DC",
";X c #E7E9DE",
":X c #E9EAE4",
">X c #EAEBE4",
",X c #EFF0E9",
"<X c #F2F3E5",
"1X c #F2F4EC",
"2X c #F7F8ED",
"3X c #F9FAEE",
"4X c #F5F6F0",
"5X c #F6F9F2",
"6X c #FAFBF4",
/* pixels */
"s s i s s s s h h h h h w.w.w.w.e.i.i.t.w.i.i.i.i.i.i.w.i.i.i.i.r.r.q.t.q.w.q.q. .e.0.k h f h g 4 i i i i t t i 4 3 3 1 2 2 , 2 ",
"g s g i s p k k k q.w.w.i.i.i.a.b.c.c.c.v.b.b.c.v.c.v.b.c.c.c.c.c.c.c.c.p.p.p.p.t.t.i.t.t.i.r.j j q.k j k j i i t 4 3 3 3 2 2 2 ",
"3 3 3 3 r r r r u u u p p 0.0.h 9.0.e.r.i.e.e.i.e.i.i.i.q.q.e.0.0.w.i.q.w.i.w.w.e.e.q.q.j g i j r 1 3 3 < < < , , , , , , , 2 2 ",
"3 3 1 1 3 r 3 r r y u u y u p 9.9.9.9.9.9.9.9.9.9.9.9.9.9.9.9.p 9.9.9.p 9.g 9.g p i p a p t p r r 1 1 1 < < < < > > > :     : : ",
"q.j g j f t.p.h.b.b.h.b.b.v.i.a.c.M.N.N.N.N.N.M.M.M.M.c.M.M.B.B.B.B.A.B.B.c.p.i.t.t.r.@.r.y.p.r.j g p i s i i 4 4 2 4 4 4 , 2 2 ",
":XH.g K.~.!.~./._.`.'.'.{.|.{.|.|.|.[.[.'.`.`.`.(.(.^.^.^.~.~.~.Q.Q.W.W.W.R.R.Y.Y.T.Y.U.U.U.U.I.I.I.P.L.P.J.G.G.F.S.A.A.C.6 m.H.",
"<XJ.@.T.{.[. XOX@X$X%X:X:X,X,X4X5X6X6X6X6X6X6X6X5X5X5X6X6X6X6X6X6X6X6X6X3X6X5X2X6X6X6X4X2X2X,X1X2X1X>X,X,X;X*X#X+X}.{.).E.0 P.:X",
";XP.@.U.].].[..XOX#X%X%X:X:X:X,X,X4X5X6X6X6X6X5X1X1X4X4X4X5X6X6X6X6X6X6X3X2X2X2X2X5X5X4X2X,X,X,X<X<X,X:X:X=X$X#X.X}.'.).E.0 P.;X",
"*XK.j I._.[.[.|.XX#X$X*X*X:X-X:X:X,X,X1X4X5X5X1X,X,X,X>X,X2X5X5X6X2X2X5X2X<X<X<X<X<X2X<X>X>X>X:X>X2X,X:X;X&X$XOX}.{.[./.T.w J.&X",
"S.l.k C.F.G.H.J.L.I.U.T.W.~.~.(._._.`.'.[.|.|.|. X|.|. X.X.XoXOX+XXX+X+X+XOXoX.X.XoX.XoX}.].}.}. XOX X[.[.`./.!.E.U.P.P.H.6 D.].",
"#.#.k #.#.#.r.#.r.#.y.p.d.d.d.h.h.h.h.h.h.h.h.h.h.h.h.h.h.b.h.h.h.h.b.l.b.h.h.h.h.h.d.d.y.p.y.y.p.y.y.y.#.@.@.d f d d d d 6 O.d ",
"@.@.j @.#.#.>.r.y.t.y.y.p.p.d.p.y.d.p.d.h.h.d.h.h.h.h.h.h.d.h.h.h.h.h.h.d.h.h.h.h.h.d.d.y.y.y.r.t.y.@.#.#.@.@.O.k k o.d O.6 d O.",
"@.@.j #.#.#.#.>.#.y.#.r.#.y.y.y.d.y.y.d.r.d.d.r.h.d.h.r.d.d.p.d.p.h.p.d.h.h.f.d.d.d.d.r.#.#.r.@.@.#.@.k @.j O.d i @.6 o.6 6 o.6 ",
"@.k s @.y.>.#.t.p.r.5.d.y.y.>.r.y.r.y.r.d.p.d.d.r.r.r.d.y.p.p.r.r.y.d.y.p.y.d.d.d.d.r.d.r.#.#.@.@.@.j @.@.d d k o.6 o.6 o.1 1 o.",
"k @.d #.#.d.#.p.d.d.r.5.>.r.y.;.r.>.d.r.#.d.r.d.d.r.d.r.d.y.y.y.y.d.h.h.d.h.f.f.d.d.d.r.5.#.#.#.#.@.@.@.@.d O.d @.6 6 @.@.6 o.6 ",
"d @.6 #.d.d.f.f.,.d.p.>.r.>.t.y.>.r.y.>.r.y.y.d.r.d.d.d.y.y.y.y.y.d.d.d.f.l.k.z.z.d.f.5.d.#.#.@.@.@.k f d O.d O.d o.o.o.6 6 6 o.",
"d O.i >.y.f.g.f.j.u.h.y.y.y.y.t.>.u.>.t.y.y.y.t.p.p.p.t.y.u.p.y. . .:.j.h.z.V.k.V.g.g.d.,.t.e.@.@.@.k f f f f f f f e f f 6 w 9 ",
"d O.d >.f.f.d.d.f.f.d.,.f.u.u.y.y.t.y.y.u.y.u.,.] ] ..y.p.f.h.u.S E Q [ 3.z.V.V.V.g.h.6.,.y.;.@.@.k O.} O.f } O.O.f f f f 0 w f ",
"f f d >.5.f.6.d.f.6.y.,.y.u.y.u.,.u.y.y.a.u.u. .T T R H ..l.u.s.T W Q Q ) 3.V.j.z.g.d.d.y.>.;.#.;.k O.@.O.f f @.O.&.@.O.O.w O.&.",
"f O.0 >.5.>.f.6.f.6.f.u.d.6.u.u.u.u.u.u.f.u.l.u.E T T T E <.l.f.[ T E Q Q | k.j.k.g.d.5.>.y.#.@.@.;.O.O.&.O.;.} O.&.=.;.O.0 &.%.",
"f k 0 >.>.y.,.,.u.s.u.u.,.f.u.u.u.u.s.u.f.f.j.l.] R T E W [ l.l...R W P U | g.k.g.g.d.5.>.;.#.;.;.k @.&.f ;.&.;.&.=.=.;.>.8 =.*.",
"e f 0 ;.>.,.>.>.,.,.,.u.u.u.u.f.f.u.l.j.j.l.l.l.[ R T W ! ..l.l.<.R R V P 8.k.j.f.f.d.5.,.:.;.;.;.f @.} ;.&.&.;.;.>.;.-.=.0 =.%.",
"O.O.0 ;.>.;.>.>.;.>.,.u.,.u.u.f.j.j.l.j.l.l.x.l.| ! W ! Q x.x.k.2.U P V S j.f.j.f.6.{ ] { >.=.;.&.&.f &.&.;.;.=.>.,.,.=.,.O.1.1.",
"O.O.0 =.>.=.>.>.>.>.,.,.u.u.f.f.u.l.j.j.l.l.x.x.X.! ! W _ j.x.k.3.T P K G f.8.6.6.f.F z N F ;.;.;.;.&.;.;.=.=.>.,.-.6.,.,.} 1.1.",
"f O.w ;.&.;.>.;.,.>.>.,.f.u.j.s.l.l.j.f.l.z.j.z.X._ Y ! _ ,.x.k.3.P P K G f.j.6.-.^ M b b b / >.&.;.;.&.;.=.=.-.-.-.-.,.-.e -.7.",
"f &.w ;.;.;.*.;.:.;.,.,.,.u.u.j.j.l.l.l.j.z.j.j.X.! ! ! Q k.k.k.3.P K K G 6.8.6./ x m m b m m } &.;.&.;.=.=.=.=.-.-.>.-.*.w 1.1.",
"f o.w O.&.&.=.;.,.:.u.,.,.u.j.f.s.s.s.2...| [ H U Y Y Y Q j.k.f.2.P J K G 6.*.F n b m m b b x *.;.=.&.=.&.&.=.=.*.=.,.=.-.8 %.%.",
"e O.0 +.&.=.>.>.;.;.,.u.u.u.f.<.V J V V J S I I P P P P E k.8.j.,.J K J G 2.H n m n m b v ^ &.>.;.&.;.=.&.=.+.+.=.=.=.-.=.8 $.%.",
"e e 0 $.&.&.;.=.>.,.,.,.u.f.f.*.V J J L n V N V m N M K S j.8.8.*.M J J M A m M m m m / -.5.=.&.&.&.*.&.&.%.+.=.&.&.=.=.=.0 e %.",
"w e 0 o.&.=.=.-.>.,.,.d.f.8.f.f.G n n n n n n m m M b M A 8.8.8.%.M J m M x x m A F *.=.-.=.=.&.=.&.&.&.+.$.$.=.$.%.&.&.=.q e $.",
"o.e 0 &.&.&.;.>.>.,.6.8.j.8.j.g.*.M n m b b b v B m b m B 8.8.8.-.M J M V S Z / *.-.-.-.=.=.=.=.&.+.&.=.+.+.$.$.$.$.$.$.$.w e e ",
"9 e w +.=.=.=.>.-.6.8.8.j.j.8.j.f...A B ' { >.3.' z b b v 8.7.7.1.V I I G | 7.7.6.4.,.>.=.=.&.$.&.&.&.+.+.+.+.o.&.o.o.$.$.8 e o.",
"e e w $.=.=.>.=.5.6.8.k.k.V.g.8.g.8.f.*.,.6.5.5.{ l b x D 7.7.4.3.A I V ( %.8.7.4.4.5.-.&.&.$.$.+.$.$.=.&.+.o.+.+.o.o.o.o.8 9 $.",
"e 9 0 &.=.=.-.,.6.6.g.k.V.g.g.8.6.6.6.,.d.5.5.6.} O x l / 7.7.4.1.A S A [ %.8.4.4.5.=.=.=.=.+.+.+.+.$.+.&.o.$.$.o.o.o.9 o.8 9 $.",
"e e 8 &.>.*.-.3.6.8.8.k.V.V.k.j.g.6.6.5.5.,.5.,.} x l O D 4.7.%.1.G G G | 1.4.4.4.=.4.=.=.=.+.+.%.$.$.$.+.$.o.+.+.$.o.o.f 9 e &.",
"e e 0 >.=.=.>.,.6.6.k.8.V.V.k.k.f.6.6.5.5.>.5.6.} O O l ~ $.-.=.,.A G Z ' -.8.-.4.4.=.=.=.$.=.+.+.+.$.+.o.&.o.+.o.o.o.o.e 9 e f ",
"9 e 0 &.;.-.-.-.6.8.k.x.k.x.k.8.8.6.6.6.,.=.>.5.} o o O l ; -.=.=.Z B Z / 4.4.4.4.=.5.=.=.$.%.$.+.+.$.$.&.+.o.o.o.o.o.O.&.9 e } ",
"e e w &.=.-.-.>.,.8.k.k.k.k.k.8.6.5.5.4.,.=.=.=.} + o o + { 4.-.-.Z z + C 6.5.-.4.=.=.=.&.$.9 &.+.+.+.o.+.o.o.o.o.o.o.o.O.0 f @.",
"f e w &.=.>.-.,.,.8.k.k.j.j.j.,.6.-.,.-.-.,.>.=.5 l O o + %.4.=.-.# l l c -.-.-.4.=.-.=.&.$.= $.$.$.o.o.$.o.o.o.o.O.e f f 0 e O.",
"e e 8 &.=.=.-.-.-.,.8.8.8.6.8.8.,.,.>.-.=.-.*.* o o O O @ %.%.=.=.# l l & =.-.=.=.=.%.&.%.} & } $.$.o.$.o.o.O.o.O.o.&.$.f w e O.",
"e d q &.=.&.>.-.=.,.6.6.,.8.,.6.6.-.=.=.*.D O O o o o o o %.=.=.=.+ l O * %.=.-.=.=.4.%.&.9 l C } $.$.o.+.O.f +.O.o.O.&.&.w f &.",
"e f 0 &.=.=.-.>.,.,.6.,.,.,.3.-.-.-.*./ + O O . o o . O o *.=.=.%.c O + * =.=.=.=.=.=.+.=.^ l x { $.&.O.&.} O.O.O.O.O.&.O.f f &.",
"f f 0 &.=.=.*.>.,.,.,.,.,.,.-.{ { ~ z l O O . . X o o o o *.%.$.$.+ O + & %.=.%.%.=.=.=.&.D l l ~ &.&.&.O.&.O.O.O.O.;.O.&.f e @.",
"e f 0 &.;.=.-.>.-.-.,.>.-.6.*.x z z l l O o O $ 5 o . . . 9 $.=.=.X l O o e &.&.+.%.=.+.=.# l l C $.&.&.&.O.O.O.O.O.O.&.;.f f ;.",
"f f d ;.;.;.;.-.>.=.,.-.>.>.&.x z l l O O # - &.5 . . . o 9 +.%.$.X + o o ` o.+.+.+.$.$.$.l l l l ~ o.O.o.O.O.f f O.O.O.O.f f O.",
"f f d } } ;.>.>.,.s.j.f.6.6.,.' z l l O + 7 &.e - . . o . 7 o.$.$.* o o O . = ^ ` ^ ^ ^ v l l l z l 9 O.+.O.O.O.O.O.O.+.@.O.O.@.",
"f f 0 ;.&.>.>.:.u.u.u.,.,.,.,.>.Z z l + } $.o.$.% o . . . ; +.o.+.- o o . o o O O l l z z z l l z z } o.O.O.O.O.O.O.O.O.O.O.;.Z.",
"D.N.d ;.;.;.&.>.;.,.,.,.,.>.>.;.} D O ; } &.o.o.% . . . . ; o.o.+.e X o . O O O l l l z l z z z l Z &.+.o.O.@.O.O.o.O.@.#.O.C.oX",
"@XY.k ;.@.;.O.;.>.;.;.=.;.;.;.f &.$.} o.O.$.o.o.= o . . . 7 o.o.$.$.9 @ o O O l l O O x c z l z C } o.+.O.O.o.O.O.o.O.O.@.O.C.@X",
"@XQ.f @.;.O.@.O.&.&.;.;.&.} &.&.+.o.+.o.$.o.o.o.o.@ . . $ o.o.o.$.$.$.$.; = ~ & # & @ C D - ^ 9 $.o.&.o.O.O.O.O.o.O.O.@.@.@.C.&X",
"#XQ.f ;.#.+.O.#.;.&.&.&.&.&.O.$.+.o.o.+.o.o.o.o.o.} = $ o.$.o.$.$.$.$.o.o.o.o.$.$.o.e o.%.o.o.o.o.o.o.O.o.O.O.O.@.d O.@.#.#.C.&X",
"$XQ.k ;.#.@.#.@.@.;.;.O.&.&.O.O.o.o.o.o.o.o.o.o.o.o.+.o.e $.o.o.$.o.o.o.o.o.o.o.o.o.e o.$.o.o.o.o.o.o.O.o.O.O.O.o.@.O.O.&.+.C.;X",
"%X!.k ;.;.;.O.@.O.@.O.O.O.;.} @.o.o.o.o.o.o.o.8 $.o.+.o.$.o.$.o.o.e $.o.$.o.o.$.o.o.9 o.o.o.o.o.o.o.o.O.o.o.O.f &.O.&.O.;.>.C.:X",
"%X~.@.;.;.;.@.e.@.@.O.O.&.f &.&.+.o.o.o.o.o.o.o.o.o.o.o.o.o.9 o.o.o.o.o.o.o.$.o.o.o.9 $.o.o.o.o.o.o.o.O.O.O.O.f } O.O.O.;.;.m.:X",
"%X!.h u.;.;.;. .@.O.O.O.f &.f &.o.o.o.+.o.+.o.o.o.o.o.o.o.o.o.o.9 o.9 $.o.o.o.o.o.o.9 o.o.o.o.o.O.o.o.O.O.k O.O.@.f O.;.&.;.n.=X",
"%X~.t.;.;.;.;.;.O.@.@.O.;.O.;.f o.o.o.o.o.o.o.8 $.o.o.o.o.o.o.o.o.o.o.o.o.o.o.o.o.o.9 $.o.o.o.o.o.o.+.O.o.O.O.O.f &.O.&.;.@.n.=X",
"$XQ.k y.;.;.@.;.@.O.@.O.@.+.O.O.o.o.o.o.o.o.o.8 9 o.o.o.o.o.9 o.o.9 9 o.o.o.9 o.o.$.8 $.o.9 o.o.o.o.O.O.f &.&.f &.f &.&.;.;.l.$X",
"$XW.@.y.;.;.@.O.O.@.@.O.O.O.&.O.o.o.o.o.o.o.o.6 %.o.o.o.9 %.9 o.o.9 o.o.o.o.o.o.$.o.8 9 o.o.o.o.o.o.O.f } &.f O.} &.f &.f f u.#X",
"#XQ.j >.;.;.+.@.@.@.@.O.&.f ;.f o.o.o.o.O.o.o.6 9 o.%.9 o.o.o.9 9 o.o.9 9 o.9 o.o.9 8 9 9 9 o.o.o.w e O.O.O.} O.@.} @.O.O.f @.J.",
"'.P.O.y.t.;.;.@.#.O.#.O.;.&.&.O.o.o.o.o.o.o.o.o.o.9 9 o.9 9 9 o.$.9 9 o.o.o.9 o.o.9 8 o.9 $.o.o.o.o.o.O.e O.f O.f &.f ;.D.O.w O.",
"i.;.k t.t.;.#.@.@.@.@.&.} ;.&.f +.o.o.o.o.o.9 9 o.o.o.%.9 o.o.9 o.o.9 o.o.o.o.9 o.o.8 o.9 o.e o.e o.d o.o.e O.O.O.O.} D.Y.S.e @.",
"r.;.f >.;.;.O.;.O.;.f O.@.O.&.f o.o.o.o.o.o.o.9 9 9 9 9 o.9 9 o.9 9 o.9 9 o.o.9 o.o.8 9 $.o.e e 9 o.e o.e e e f f O.O.&.D.&.0 O.",
"e.;.f t.>.;.O.@.O.O.O.O.O.@.} @.o.o.o.o.o.o.9 9 9 %.o.o.9 o.o.o.9 o.o.o.o.o.o.9 $.o.9 $.o.o.9 o.o.9 o.e o.e e e o.f &.f f e w O.",
"@.@.f >.;.#.;.@.@.;.@.&.f } &.O.o.o.o.o.o.o.o.9 9 9 o.9 9 %.9 9 9 o.9 o.9 9 o.o.9 9 9 9 o.o.o.o.9 o.9 o.e e e $.e o.f O.O.f w O."
};
